src/icons/svgs/24/sort-left.svg

<svg width="24" height="24" viewBox="0 0 24 24" fill="none" xmlns="http://www.w3.org/2000/svg">
<path d="M16 17.7243V7.25669C16 5.25581 13.7596 4.24106 12.4557 5.6665L7.60889 10.9186C6.79704 11.793 6.79704 13.2246 7.60889 14.1046L12.4557 19.3614C13.7583 20.7282 16 19.7707 16 17.7243ZM9.07592 12.4675L13.9228 7.21069V17.7243L9.07592 12.4675Z" fill="black"/>
</svg>

<svg width="24" height="24" viewBox="0 0 24 24" xmlns="http://www.w3.org/2000/svg">
    <path d="M16 17.724V7.257c0-2.001-2.24-3.016-3.544-1.59l-4.847 5.252c-.812.874-.812 2.306 0 3.186l4.847 5.256c1.302 1.367 3.544.41 3.544-1.637zm-6.924-5.257 4.847-5.256v10.513l-4.847-5.257z"/>
</svg>
